web/public/images/pin-ic-white.svg

<?xml version="1.0" encoding="UTF-8"?>
<svg width="8px" height="13px" viewBox="0 0 8 13" version="1.1" xmlns="http://www.w3.org/2000/svg" xmlns:xlink="http://www.w3.org/1999/xlink">
    <!-- Generator: Sketch Beta 51.2 (57516) - http://www.bohemiancoding.com/sketch -->
    <title>Group</title>
    <desc>Created with Sketch Beta.</desc>
    <defs></defs>
    <g id="Resource_pinning_flow" stroke="none" stroke-width="1" fill="none" fill-rule="evenodd">
        <g id="2_00_resource_pinned" transform="translate(-51.000000, -258.000000)" fill="#fff">
            <g id="Group" transform="translate(51.000000, 258.000000)">
                <g id="Shape">
                    <path d="M6.51673903,0.000528283889 L5.5535674,0.00105656633 C5.55310633,0.000528283889 5.55218419,0.000528283889 5.55172313,0 L2.44827256,0.000528283889 L1.48325665,0 C1.30297895,0.000528283889 1.15728138,0.167465864 1.15728138,0.373496423 C1.1568203,0.580055267 1.30297895,0.747521132 1.48325665,0.746992841 L2.08633395,0.746992841 L1.57593137,6.28498862 L0.325975275,6.2855169 C0.145697574,6.28498862 0,6.4519262 0,6.65901333 C0,6.86504389 0.145697574,7.03198146 0.325975275,7.03250976 L1.8691708,7.03198146 L3.67379203,7.03198146 L3.67379203,12.6265036 C3.67425311,12.8330624 3.81995068,13 3.99976731,13 C4.09013668,13 4.17174577,12.9582656 4.23076251,12.8906453 C4.28977925,12.823025 4.32620364,12.7295189 4.32574258,12.6265036 L4.32574258,7.03198146 L6.13036381,7.03198146 L7.67402041,7.03198146 C7.76438979,7.03198146 7.84599888,6.99024707 7.90501561,6.92262679 C7.96403236,6.8550065 8.00045675,6.76150033 7.99999567,6.65848505 C8.00045675,6.4519262 7.85475918,6.28498862 7.67402041,6.28498862 L6.42452537,6.28498862 L5.91412279,0.748049409 L6.51673903,0.747521132 C6.60664735,0.748049409 6.68825642,0.706315019 6.74727317,0.638694733 C6.80628991,0.571074448 6.84271431,0.47756827 6.84271431,0.374024707 C6.84271431,0.167994148 6.69655566,0.000528283889 6.51673903,0.000528283889 Z" fill-rule="nonzero"></path>
                </g>
            </g>
        </g>
    </g>
</svg>

<svg xmlns="http://www.w3.org/2000/svg" width="8" height="13"><path fill="#fff" fill-rule="nonzero" d="m6.517 0-.963.001L5.552 0H1.483c-.18 0-.326.167-.326.373 0 .207.146.375.326.374h.603l-.51 5.538H.326c-.18 0-.326.167-.326.374 0 .206.146.373.326.374l1.543-.001h1.805v5.595c0 .206.146.373.326.373.09 0 .172-.042.23-.11a.4.4 0 0 0 .096-.263V7.032h3.348c.09 0 .172-.042.231-.11A.4.4 0 0 0 8 6.659c0-.206-.145-.373-.326-.373h-1.25L5.915.748h.603c.09 0 .171-.042.23-.11a.4.4 0 0 0 .096-.264c0-.206-.146-.373-.326-.373"/></svg>
